X:10
T:How Many Miles To London Town?
%%score 1 { 2 | 3 }
L:1/8
Q:1/4=60
M:4/4
I:linebreak $
K:D
V:1 treble nm="Violin"
V:2 treble nm="Piano"
V:3 bass 
V:1
|: (3FAF D>A, B,>D A,2 | A2 F>E [CE]4 |$ (3FAF D>A, B,>D A,2 | A>F E>D [A,D]4 |$ 
w: How man- y miles to Lon- don town?|Four- score and ten!|Can I get there by can- dle light?|Yes! and back a- gain!|
(3FAF D>A, B,>D A,2 | A2 F>E [CE]4 |$ (3FAF D>A, B,>D A,2 | A>F E>D [A,D]4 :| 
w: O- pen the gate and let me pass!|Toll first you pay!|I have no gold, what shall I do?|Turn and go a- way.|
V:2
|: (3FAF D>A, B,>D A,2 | A2 F>E [CE]4 |$ (3FAF D>A, B,>D A,2 | A2 F>E [A,D]4 |$ 
(3FAF D>A, B,>D A,2 | A2 F>E [CE]4 |$ (3FAF D>A, B,>D A,2 | A2 F>E [A,D]4 :| 
V:3
|: [D,,A,,D,]2 [D,,A,,D,]2 [G,,D,G,]2 [D,,A,,D,]2 | [D,,A,,D,]2 [D,,A,,D,]2 [A,,E,A,]4 |$ 
[D,,A,,D,]2 [D,,A,,D,]2 [G,,D,G,]2 [D,,A,,D,]2 | [D,,A,,D,]2 [A,,E,G,]2 [D,,A,,D,]4 |$ 
[D,,A,,D,]2 [D,,A,,D,]2 [G,,D,G,]2 [D,,A,,D,]2 | [D,,A,,D,]2 [D,,A,,D,]2 [A,,E,A,]4 |$ 
[D,,A,,D,]2 [D,,A,,D,]2 [G,,D,G,]2 [D,,A,,D,]2 | [D,,A,,D,]2 [A,,E,G,]2 [D,,A,,D,]4 :| 



